X: 146
T:Joan of Arc
% Nottingham Music Database
S:Hugh Barwell, via Phil Rowe
M:6/8
K:Dm
"A7"A|"Dm"f2f fed|"A7"e2^c A2A|"Dm"f2f fed|"A7"e2^c A2A|
"Dm"d2d "D7"d2A|"Gm"B2B B2G|"A7"ABA GFE| [1"Dm"D3 D2:|
 [2"Dm"D3 D|:ED|"C7"C2E G2 B|"F"A2G FE_E|"D7"D2^F A2c|
"Gm"B2A G^F=F|"E7"E2^G =B2d|"A"^c2=B A3|"A7"^c2e gfe| [1"Dm"dAF D:|
 [2"Dm"d3-d2 |:e|"Dm"f3 def|"C"e3 cde|"Bb"d3 Bcd|"A7"^c2
B A2G|"Dm"A3 FGA|"C"G3 EFG|"Dm"FED "A7"ED^C|"Dm"D3 -D2:|<end>
<start>
